layanan/assets/img/img-systemdev/newlayout/unsupport-2.svg

<?xml version="1.0" encoding="UTF-8"?>
<svg width="63px" height="53px" viewBox="0 0 63 53" version="1.1" xmlns="http://www.w3.org/2000/svg" xmlns:xlink="http://www.w3.org/1999/xlink">
    <!-- Generator: Sketch 52.1 (67048) - http://www.bohemiancoding.com/sketch -->
    <title>cloud-computing (1)</title>
    <desc>Created with Sketch.</desc>
    <g id="Page-1" stroke="none" stroke-width="1" fill="none" fill-rule="evenodd">
        <g id="Web-Sistem---Landing-Page-" transform="translate(-920.000000, -3784.000000)">
            <g id="cloud-computing-(1)" transform="translate(920.000000, 3784.000000)">
                <rect id="Rectangle" fill="#FFCA13" x="3" y="36" width="58" height="7"></rect>
                <path d="M18.5842767,21.9391847 C20.7653352,21.6369988 21.8558644,21.154954 21.8558644,20.4930504 C21.8558644,15.7035407 25.8552066,13.0833228 28.7424903,13.00268 C32.339104,12.9022253 38.0916072,15.6258165 46,21.1734537 L46,28 L18,28 L18.5842767,21.9391847 Z" id="Rectangle-Copy-7" fill="#FFCA13"></path>
                <path d="M59.6303547,3.1568879 L51.3001881,3.1568879 C50.7905269,3.1568879 50.3773347,3.57653991 50.3773347,4.09416905 C50.3773347,4.61179819 50.7905269,5.0314502 51.3001881,5.0314502 L59.6303547,5.0314502 C60.4706435,5.0314502 61.1544163,5.72578808 61.1544163,6.57933879 L61.1544163,35.3362493 L1.84570673,35.3362493 L1.84570673,6.57921382 C1.84570673,5.72566311 2.5293565,5.03132523 3.36964525,5.03132523 L13.5685285,5.03132523 L13.5685285,5.80414479 C13.5685285,6.80516106 14.3703035,7.61947093 15.3559109,7.61947093 L16.1870941,7.61947093 L16.1870941,16.0832447 L12.5862433,16.0832447 L12.5862433,15.2390668 C12.5862433,14.2380505 11.7844683,13.4237407 10.7988609,13.4237407 L7.29078768,13.4237407 C6.30518028,13.4237407 5.50340528,14.2380505 5.50340528,15.2390668 L5.50340528,18.8018599 C5.50340528,19.8028762 6.30518028,20.6171861 7.29078768,20.6171861 L10.7988609,20.6171861 C11.7844683,20.6171861 12.5862433,19.8027512 12.5862433,18.8018599 L12.5862433,17.957807 L20.4761474,17.957807 C20.3874304,18.428947 20.3385807,18.9109595 20.3359967,19.4008451 C20.3350124,19.5938 20.3409186,19.7872549 20.3537155,19.9802098 C17.9526972,20.5860683 16.1869711,22.7854298 16.1869711,25.3604536 C16.1869711,25.4250635 16.1880785,25.4894235 16.1901703,25.5537834 C16.2812252,28.2225353 18.4574364,30.3131722 21.1445393,30.3131722 L41.8552146,30.3131722 C44.3405202,30.3131722 46.387409,28.5242149 46.7529819,26.1437707 L52.2187348,26.1437707 L52.2187348,26.9879486 C52.2187348,27.9889648 53.0206329,28.8032747 54.0061172,28.8032747 L57.5140674,28.8032747 C58.4996748,28.8032747 59.3014498,27.9889648 59.3014498,26.9879486 L59.3014498,23.4250305 C59.3014498,22.4240142 58.4996748,21.6097043 57.5140674,21.6097043 L54.0061172,21.6097043 C53.0205098,21.6097043 52.2187348,22.4240142 52.2187348,23.4250305 L52.2187348,24.2692084 L46.7046244,24.2692084 C46.2572251,22.0183589 44.454954,20.2548957 42.1944555,19.885232 C41.9365487,17.7056159 40.4190086,15.9110349 38.3991902,15.2614366 L38.3991902,12.4173507 L44.0801525,12.4173507 L44.0801525,13.2615286 C44.0801525,14.2625448 44.8819275,15.0768547 45.8675349,15.0768547 L49.3756082,15.0768547 C50.3612155,15.0768547 51.1629906,14.2625448 51.1629906,13.2615286 L51.1629906,9.69861047 C51.1629906,8.69759419 50.3612155,7.88328433 49.3756082,7.88328433 L45.8675349,7.88328433 C44.8819275,7.88328433 44.0801525,8.69759419 44.0801525,9.69861047 L44.0801525,10.5427884 L38.3993133,10.5427884 L38.3993133,7.19332043 L39.2304965,7.19332043 C40.2161039,7.19332043 41.0178789,6.37901056 41.0178789,5.37799429 L41.0178789,5.03120026 L47.6088977,5.03120026 C48.1185588,5.03120026 48.531751,4.61154825 48.531751,4.09391911 C48.531751,3.57628997 48.1185588,3.15663795 47.6088977,3.15663795 L41.0178789,3.15663795 L41.0178789,1.81532614 C41.0178789,0.814309866 40.2161039,0 39.2304965,0 L35.7224233,0 C34.7368159,0 33.9350409,0.814309866 33.9350409,1.81532614 L33.9350409,3.1568879 L20.6513665,3.1568879 L20.6513665,2.24135167 C20.6513665,1.24033539 19.8495915,0.426025527 18.8639841,0.426025527 L15.3559109,0.426025527 C14.3703035,0.426025527 13.5685285,1.24033539 13.5685285,2.24135167 L13.5685285,3.1568879 L3.36964525,3.1568879 C1.51163381,3.1568879 0,4.69215443 0,6.57921382 L0,40.5015433 C0,42.3886027 1.51163381,43.9238692 3.36964525,43.9238692 L7.97197651,43.9238692 C8.48163766,43.9238692 8.89482987,43.5042172 8.89482987,42.986588 C8.89482987,42.4689589 8.48163766,42.0493069 7.97197651,42.0493069 L3.36964525,42.0493069 C2.5293565,42.0493069 1.84570673,41.354969 1.84570673,40.5015433 L1.84570673,37.2108116 L61.1544163,37.2108116 L61.1544163,40.5015433 C61.1544163,41.354969 60.4707665,42.0493069 59.6303547,42.0493069 L11.66339,42.0493069 C11.1537288,42.0493069 10.7405366,42.4689589 10.7405366,42.986588 C10.7405366,43.5042172 11.1537288,43.9238692 11.66339,43.9238692 L23.8119547,43.9238692 L22.8356989,51.1254377 L21.532876,51.1254377 C21.0232149,51.1254377 20.6100227,51.5450897 20.6100227,52.0627188 C20.6100227,52.580348 21.0232149,53 21.532876,53 L41.467124,53 C41.9767851,53 42.3899773,52.580348 42.3899773,52.0627188 C42.3899773,51.5450897 41.9767851,51.1254377 41.467124,51.1254377 L40.1643011,51.1254377 L39.1879222,43.9238692 L59.6302317,43.9238692 C61.4882431,43.9238692 63,42.3886027 63,40.5015433 L63,6.57921382 C63.000123,4.69215443 61.4884892,3.1568879 59.6303547,3.1568879 Z M10.7405366,18.7427487 L7.34923506,18.7427487 L7.34923506,15.298303 L10.7406596,15.298303 L10.7406596,18.7427487 L10.7405366,18.7427487 Z M54.0645646,23.4843916 L57.4559892,23.4843916 L57.4559892,26.9288374 L54.0645646,26.9288374 L54.0645646,23.4843916 Z M45.9259823,9.75809658 L49.3172838,9.75809658 L49.3172838,13.2024174 L45.9259823,13.2024174 L45.9259823,9.75809658 Z M40.3876316,20.5463276 C40.3876316,20.6010648 40.3857859,20.6553022 40.383325,20.7094145 C40.3721277,20.9649799 40.4641669,21.2141717 40.6382786,21.3991285 C40.8123903,21.5840853 41.0534396,21.6886859 41.305317,21.6886859 C41.310608,21.6886859 41.3162682,21.6885609 41.3219284,21.6885609 C43.3330104,21.6948095 44.9673222,23.3396754 44.9673222,25.3607035 C44.9673222,25.4038184 44.9665839,25.4466834 44.9651074,25.4890485 C44.9096131,27.1155438 43.514628,28.4388598 41.8554607,28.4388598 L21.1446624,28.4388598 C19.4854951,28.4388598 18.0905099,27.1156687 18.0348926,25.4894235 C18.0334161,25.4466834 18.0326778,25.4036935 18.0326778,25.3607035 C18.0326778,23.4345283 19.5304073,21.8257789 21.4425595,21.6980587 C21.7066186,21.6804378 21.950498,21.5484686 22.1123049,21.3358933 C22.2741119,21.1231929 22.3382194,20.8502567 22.2883853,20.5863183 C22.2154184,20.1999085 22.1794886,19.8046258 22.1817035,19.4114676 C22.1905629,17.7621027 22.8556325,16.2184631 24.0544806,15.0649825 C25.2000492,13.9627398 26.6726771,13.3658792 28.2299614,13.3658792 C28.3301217,13.3658792 28.4311434,13.3683786 28.5320421,13.3733774 C30.7807281,13.4843515 32.768062,14.8311621 33.718478,16.8884317 C33.8261442,17.1213773 34.0232657,17.2990858 34.2636997,17.3800669 C34.5045029,17.460923 34.7669624,17.4378034 34.9901699,17.3163318 C35.5207491,17.0272743 36.1225725,16.874435 36.7307944,16.874435 C38.7472905,16.874185 40.3876316,18.5214254 40.3876316,20.5463276 Z M35.7807476,1.87456231 L39.1720492,1.87456231 L39.1720492,5.31900806 L35.7807476,5.31900806 L35.7807476,1.87456231 Z M20.6513665,5.80426976 L20.6513665,5.0314502 L33.9350409,5.0314502 L33.9350409,5.37824423 C33.9350409,6.3792605 34.7368159,7.19357037 35.7224233,7.19357037 L36.5536066,7.19357037 L36.5536066,15.0033719 C36.0119531,15.0211177 35.4753447,15.1187199 34.9645761,15.2928043 C33.6108117,13.0599506 31.2529829,11.6305344 28.6217434,11.5008147 C26.4770322,11.3940896 24.3504089,12.1981518 22.7852496,13.7040502 C22.0623478,14.3995128 21.4900556,15.2054497 21.0796935,16.0833697 L18.0329239,16.0833697 L18.0329239,7.6195959 L18.8641072,7.6195959 C19.8495915,7.6195959 20.6513665,6.80528603 20.6513665,5.80426976 Z M15.4143582,2.30058783 L18.8056598,2.30058783 L18.8056598,5.74490862 L15.4143582,5.74490862 L15.4143582,2.30058783 Z M38.3012447,51.1255627 L24.6987553,51.1255627 L25.6751341,43.9239942 L37.3249889,43.9239942 L38.3012447,51.1255627 Z" id="Shape" fill="#000000" fill-rule="nonzero"></path>
            </g>
        </g>
    </g>
</svg>

<svg id="Layer_1" data-name="Layer 1" xmlns="http://www.w3.org/2000/svg" viewBox="0 0 63 53"><path d="M3,36H61v7H3Z" transform="translate(0 0)" style="fill:#ffca13;fill-rule:evenodd"/><path d="M18.58,21.94c2.19-.3,3.28-.79,3.28-1.45A7.43,7.43,0,0,1,28.74,13q5.4-.15,17.26,8.17V28H18Z" transform="translate(0 0)" style="fill:#ffca13;fill-rule:evenodd"/><path d="M59.63,3.16H51.3A.94.94,0,0,0,51.3,5h8.33a1.54,1.54,0,0,1,1.52,1.55V35.34H1.85V6.58A1.54,1.54,0,0,1,3.37,5h10.2V5.8a1.8,1.8,0,0,0,1.79,1.82h.83v8.46h-3.6v-.84a1.81,1.81,0,0,0-1.79-1.82H7.29A1.81,1.81,0,0,0,5.5,15.24V18.8a1.81,1.81,0,0,0,1.79,1.82H10.8a1.81,1.81,0,0,0,1.79-1.82V18h7.89a7.64,7.64,0,0,0-.14,1.44c0,.19,0,.39,0,.58a5.56,5.56,0,0,0-4.16,5.38v.19a4.92,4.92,0,0,0,4.95,4.76H41.86a4.92,4.92,0,0,0,4.89-4.17h5.47V27A1.8,1.8,0,0,0,54,28.8h3.5A1.8,1.8,0,0,0,59.3,27V23.43a1.8,1.8,0,0,0-1.79-1.82H54a1.8,1.8,0,0,0-1.79,1.82v.84H46.7a5.51,5.51,0,0,0-4.51-4.38,5.54,5.54,0,0,0-3.79-4.63V12.42h5.68v.84a1.81,1.81,0,0,0,1.79,1.82h3.51a1.81,1.81,0,0,0,1.78-1.82V9.7a1.81,1.81,0,0,0-1.78-1.82H45.87A1.81,1.81,0,0,0,44.08,9.7v.84H38.4V7.19h.83A1.8,1.8,0,0,0,41,5.38V5h6.59a.94.94,0,0,0,0-1.87H41V1.82A1.8,1.8,0,0,0,39.23,0H35.72a1.8,1.8,0,0,0-1.78,1.82V3.16H20.65V2.24A1.8,1.8,0,0,0,18.86.43h-3.5a1.8,1.8,0,0,0-1.79,1.81v.92H3.37A3.4,3.4,0,0,0,0,6.58V40.5a3.4,3.4,0,0,0,3.37,3.42H8a.94.94,0,0,0,0-1.87H3.37A1.54,1.54,0,0,1,1.85,40.5V37.21h59.3V40.5a1.54,1.54,0,0,1-1.52,1.55h-48a.94.94,0,0,0,0,1.87H23.81l-1,7.21H21.53a.94.94,0,0,0,0,1.87H41.47a.94.94,0,0,0,0-1.87H40.16l-1-7.21H59.63A3.4,3.4,0,0,0,63,40.5V6.58A3.4,3.4,0,0,0,59.63,3.16ZM10.74,18.74H7.35V15.3h3.39v3.44Zm43.32,4.74h3.4v3.45h-3.4ZM45.93,9.76h3.39V13.2H45.93ZM40.39,20.55a.86.86,0,0,1,0,.16,1,1,0,0,0,.26.69.92.92,0,0,0,.67.29h0A3.67,3.67,0,0,1,45,25.36v.13a3.12,3.12,0,0,1-3.11,3H21.14a3.12,3.12,0,0,1-3.11-3v-.13a3.67,3.67,0,0,1,3.41-3.66.92.92,0,0,0,.67-.36,1,1,0,0,0,.18-.75,6.73,6.73,0,0,1-.11-1.18,6.09,6.09,0,0,1,1.87-4.35,6,6,0,0,1,4.18-1.69h.3a6,6,0,0,1,5.19,3.52.92.92,0,0,0,1.27.43,3.65,3.65,0,0,1,5.4,3.23ZM35.78,1.87h3.39V5.32H35.78ZM20.65,5.8V5H33.94v.35a1.8,1.8,0,0,0,1.78,1.81h.83V15a5.79,5.79,0,0,0-1.59.29A7.84,7.84,0,0,0,22.79,13.7a8,8,0,0,0-1.71,2.38H18V7.62h.83A1.8,1.8,0,0,0,20.65,5.8ZM15.41,2.3h3.4V5.74h-3.4ZM38.3,51.13H24.7l1-7.21H37.32Z" transform="translate(0 0)"/></svg>
